X:1
T:Temer donna
T:Temer donna
T:Giovanni Ghizzolo
C:Giovanni Ghizzolo
%%score [ 1 2 3 ]
L:1/8
Q:1/4=120
M:4/4
K:C
V:1 treble nm="Soprano" snm="S"
V:2 treble nm="MusicXML Part"
V:3 bass nm="BC" snm="BC"
V:1
"^Editor : André Vierendeels (04/10/08)\nContinuo: André Vierendeels""^Source: Madrigali et Arie---Libro terzo---Venetia---A.Raverij.1609." z2 A2 A4- | %1
w: Te- mer|
 A4 A2 A>G | B4 B4 | z dcB dAAB | c3 d B4 | A4 z GFE | GDDE F3 G | E8 | D8 | z EEE F3 E | G4 G4 | %11
w: _ don- na son|De- i|ch'io sco- pr'al- trui gia- mai gl'ac-|cen- di mie-|i ch'io sco- pr'al|trui gia- ma gl'in- cen- di|mie-|i|il mio rin- chius' ar-|do- re,|
 z2 BB d2 ^cc | e3 d f4- | f2 B2 B4 | A8 :: G6 A<F | G4 z2 B2 | B2 B>B c2 E2- | E2 DC D4 | %19
w: non ve- dra, non sa-|pra, non ch'al-|* tri'a- mo-|re.|Ar- * *|do, e|sem- pr'ar- de- ro ta-|* cit a- man-|
 D4 z dBB | e3 A B2 Bc | c2 d2 d4 | c4 z2 e2 | B2 BB BB d2 | d4- dFFF | F6 F/E/F/G/ | E8 | D8 :| %28
w: te se pur tra|fia- me tan- te non|s'a- pr'il pet-|to, e|fo- re l'i- ma- gin tu-|a _ non ma- ni-|fest' il _ _ _|co-|re.|
V:2
 [FA]8- | [FA]8 | [D-GB-]8 | [DGB]4 [FA]4 | [Ec]4 A2 ^G2 | [EAc]4 [EGc]4 | [DGB]4 [FA]4 | %7
 [Ac]2 [_Bd]2 [FAd]2 [EA^c]2 | [^FAd]8 | [EGc]4 [FA]4 | [EG]8 | [EA]2 [DG]2 [^FA]2 [EA]2 | %12
 [EA]4 [FA]4 | A2 [EB]2 [E^G]4 | [EA^c]8 :: [EG]8- | [EG]4 [DB]4- | [DB]4 [EA]4 | [GBe]4 [GBd]4 | %19
 [DGB]8 | [Gc]4 [EB]4 | [FA]4 [EB]4 | [EGc]8 | [DGB]8 | [FA]4 [DF]4 | [DF]4 [DG]4 | [DA]4 [^CE]4 | %27
 [D^FA]8 :| %28
V:3
 D,8 | D,8 | G,,8 | G,4 D,4 | A,,4 E,4 | A,,4 C,4 | G,,4 D,4 | A,,2 G,,2 A,,4 | D,8 | C,4 D,4 | %10
 C,4 C,,4 | A,,2 G,2 ^F,F, A,2 | ^C,4 D,4 | E,8 | A,,8 :: C,8 | C,4 G,,4 | G,,4 A,,4 | G,,8 | %19
 G,,4 G,4 | E,2 A,2 G,2 E,2 | F,4 G,4 | C,8 | G,8 | %24
"^Note: original keys: Ut 1st, Fa 4rth\neditorial accidentals between brackets" D,4 _B,,4 | %25
 B,,2 A,,2 G,,4 | A,,8 | D,8 :| %28

